X:287
T:Robertson's Reel
R:hp 32 reel
M:4/4
L:1/8
Q:1/4=180
C:© Tom Anderson?
S:Tom Anderson
R:hp 32 reel
K:G
GA|B2AB d2BA|GAGE D2GA|B2AB dBGB|A6GA|!
B2AB d2BA|GAGE D2GA|BABd AGAd|G6:|!
|:Bc|d2Bd g2fg|edBc d2Bc|d2Bd g2fg|e6de|!
g2G2 G2BA|GAGE D2GA|BABd AGAd|G6:|]!
K:A
" key A"
|:AB|c2Bc e2cB|ABAF E2AB|c2Bc e2c2|B4 B2AB|!
c2Bc e2cB|ABAF E2AB|cBce BABc|A4 A2:||!
|:cd|e2ce a2ga|fecd e2cd|e2ce a2g2|f4 f2e2|!
a2A2 A2cB|ABAF E2AB|cBce BABc|A4 A2:|]
% Output from ABC2Win  Version 2.1 f on 19/04/2006

